X:129
T:Tailor's Thimble, The
R:jig
Z:Transcribed by Dave Marshall
M:6/8
K:D
|: ~F3 FED | FAA A2d | Bdd Add | Bdd AFE |
~F3 FED | FAA A2d | Bdd AFD |1 ~E3 EDE :|2 E3 D3 
|: ~f3 fed | faa afd | efe edB | def ~g3 |
~f3 efe | ded cBA | BdB AFD |1 ~E3 E2z :|2 E3 D3 ||
